X: 1
T: Kishiniever Bulgar [G-32]
T: Bulgar from Kishiniev
S: Abe Schwartz's Orchestra 1917
Z: 2007 John Chambers <jc:trillian.mit.edu>
M: 4/4
L: 1/8
K: G
DGB \
| "G"dc B2 z DGB | dc B2 z DGB | "G"d2 "C" e2 "G"d2 "D7"cB | "G"d3 kg z DGB |
| "G"dc B2 z DGB | "Am"cB A2 "D7"z ABc | "G"d>B "D7"c>A "G"B>G "D7"A>F | "G"G4 z :|
|: z3 \
| "G"de =f2 "C"ed e2 | "D7"dc d2 "G"c B3 | d2 cB d2 cB | d4 g2 g2 |
| "G"de =fg e=f de | "D7"cd Bc "G"BA AG | "G"d>B "C"c>A "G"B>G "D7"A>F | "G"G4 z :|

%%sep 1 1 500

